humanity-icon-theme/Humanity/places/48/folder-ubuntu.svg

<?xml version="1.0" encoding="UTF-8" standalone="no"?>
<!-- Created with Inkscape (http://www.inkscape.org/) -->
<svg
   xmlns:svg="http://www.w3.org/2000/svg"
   xmlns="http://www.w3.org/2000/svg"
   xmlns:xlink="http://www.w3.org/1999/xlink"
   version="1.0"
   width="48"
   height="48"
   id="svg3602">
  <defs
     id="defs3604">
    <linearGradient
       id="linearGradient3484">
      <stop
         id="stop3486"
         style="stop-color:#bdbdbd;stop-opacity:1"
         offset="0" />
      <stop
         id="stop3488"
         style="stop-color:#d0d0d0;stop-opacity:1"
         offset="1" />
    </linearGradient>
    <radialGradient
       cx="3"
       cy="5.01718"
       r="21"
       fx="3"
       fy="5.01718"
       id="radialGradient2810"
       xlink:href="#linearGradient3484"
       gradientUnits="userSpaceOnUse"
       gradientTransform="matrix(-1.274898e-8,1.7142916,-2.159331,-1.4599595e-8,12.809361,2.8570011)" />
    <linearGradient
       id="linearGradient6404">
      <stop
         id="stop6406"
         style="stop-color:#f9f9f9;stop-opacity:1"
         offset="0" />
      <stop
         id="stop6408"
         style="stop-color:#c9c9c9;stop-opacity:1"
         offset="1" />
    </linearGradient>
    <linearGradient
       x1="62.988873"
       y1="13.182598"
       x2="62.988873"
       y2="16.19013"
       id="linearGradient2808"
       xlink:href="#linearGradient6404"
       gradientUnits="userSpaceOnUse"
       gradientTransform="translate(-50.940898,0)" />
    <linearGradient
       id="linearGradient5060-820">
      <stop
         id="stop2681"
         style="stop-color:#000000;stop-opacity:1"
         offset="0" />
      <stop
         id="stop2683"
         style="stop-color:#000000;stop-opacity:0"
         offset="1" />
    </linearGradient>
    <radialGradient
       cx="605.71429"
       cy="486.64789"
       r="117.14286"
       fx="605.71429"
       fy="486.64789"
       id="radialGradient7600-312"
       xlink:href="#linearGradient5060-820"
       gradientUnits="userSpaceOnUse"
       gradientTransform="matrix(-3.212956e-2,0,0,3.705882e-2,23.363215,25.412461)" />
    <linearGradient
       id="linearGradient5060-179">
      <stop
         id="stop2675"
         style="stop-color:#000000;stop-opacity:1"
         offset="0" />
      <stop
         id="stop2677"
         style="stop-color:#000000;stop-opacity:0"
         offset="1" />
    </linearGradient>
    <radialGradient
       cx="605.71429"
       cy="486.64789"
       r="117.14286"
       fx="605.71429"
       fy="486.64789"
       id="radialGradient7598-526"
       xlink:href="#linearGradient5060-179"
       gradientUnits="userSpaceOnUse"
       gradientTransform="matrix(3.212956e-2,0,0,3.705882e-2,24.636785,25.412461)" />
    <linearGradient
       id="linearGradient5048-585">
      <stop
         id="stop2667"
         style="stop-color:#000000;stop-opacity:0"
         offset="0" />
      <stop
         id="stop2669"
         style="stop-color:#000000;stop-opacity:1"
         offset="0.5" />
      <stop
         id="stop2671"
         style="stop-color:#000000;stop-opacity:0"
         offset="1" />
    </linearGradient>
    <linearGradient
       x1="302.85715"
       y1="366.64789"
       x2="302.85715"
       y2="609.50507"
       id="linearGradient7596-975"
       xlink:href="#linearGradient5048-585"
       gradientUnits="userSpaceOnUse"
       gradientTransform="matrix(8.284024e-2,0,0,3.705882e-2,-5.9408285,25.412461)" />
    <linearGradient
       x1="82.453476"
       y1="45.114193"
       x2="65.340263"
       y2="15.943953"
       id="linearGradient2801"
       xlink:href="#linearGradient3390-178-986-453"
       gradientUnits="userSpaceOnUse"
       gradientTransform="translate(-53.765393,-0.1141929)" />
    <linearGradient
       id="linearGradient7012-661-145-733-759-865-745-661-970-94">
      <stop
         id="stop3618"
         style="stop-color:#f0c178;stop-opacity:1"
         offset="0" />
      <stop
         id="stop3270"
         style="stop-color:#e18941;stop-opacity:1"
         offset="0.5" />
      <stop
         id="stop3620"
         style="stop-color:#ec4f18;stop-opacity:1"
         offset="1" />
    </linearGradient>
    <radialGradient
       cx="63.969177"
       cy="14.113381"
       r="23.097054"
       fx="63.969177"
       fy="14.113381"
       id="radialGradient2799"
       xlink:href="#linearGradient7012-661-145-733-759-865-745-661-970-94"
       gradientUnits="userSpaceOnUse"
       gradientTransform="matrix(1.5646925,-9.5143002e-8,6.1772287e-8,1.015888,-86.212573,8.1461173)" />
    <linearGradient
       id="linearGradient6129-963-697-142-998-580-273">
      <stop
         id="stop2661"
         style="stop-color:#0a0a0a;stop-opacity:0.498"
         offset="0" />
      <stop
         id="stop2663"
         style="stop-color:#0a0a0a;stop-opacity:0"
         offset="1" />
    </linearGradient>
    <linearGradient
       x1="22.934725"
       y1="49.629246"
       x2="22.809399"
       y2="36.657963"
       id="linearGradient2796"
       xlink:href="#linearGradient6129-963-697-142-998-580-273"
       gradientUnits="userSpaceOnUse"
       gradientTransform="matrix(1.1446925,0,0,0.9977536,-3.4661413,1.0988425)" />
    <linearGradient
       id="linearGradient6087-437-184-795-110-662-495">
      <stop
         id="stop2693"
         style="stop-color:#ffffff;stop-opacity:0.40000001"
         offset="0" />
      <stop
         id="stop2695"
         style="stop-color:#ffffff;stop-opacity:0"
         offset="1" />
    </linearGradient>
    <radialGradient
       cx="7.2646537"
       cy="8.3021259"
       r="20.979567"
       fx="7.2646537"
       fy="8.3021259"
       id="radialGradient2793"
       xlink:href="#linearGradient6087-437-184-795-110-662-495"
       gradientUnits="userSpaceOnUse"
       gradientTransform="matrix(0,1.2079744,-1.6271642,0,26.371748,8.2664685)" />
    <linearGradient
       id="linearGradient8265-821-176-38-919-66-249">
      <stop
         id="stop2687"
         style="stop-color:#ffffff;stop-opacity:0.27450982"
         offset="0" />
      <stop
         id="stop2689"
         style="stop-color:#ffffff;stop-opacity:0.07843138"
         offset="1" />
    </linearGradient>
    <linearGradient
       x1="11.566265"
       y1="22.292103"
       x2="15.214532"
       y2="33.95525"
       id="linearGradient2790"
       xlink:href="#linearGradient8265-821-176-38-919-66-249"
       gradientUnits="userSpaceOnUse" />
    <linearGradient
       id="linearGradient3390-178-986-453">
      <stop
         id="stop3624"
         style="stop-color:#bb2b12;stop-opacity:1"
         offset="0" />
      <stop
         id="stop3626"
         style="stop-color:#cd7233;stop-opacity:1"
         offset="1" />
    </linearGradient>
    <linearGradient
       x1="23.963856"
       y1="44.915665"
       x2="14.26506"
       y2="23.614458"
       id="linearGradient3588"
       xlink:href="#linearGradient3390-178-986-453"
       gradientUnits="userSpaceOnUse" />
  </defs>
  <g
     id="layer1">
    <path
       d="M 3.5062498,8.4999995 C 2.8159788,8.5076695 2.505808,8.8421456 2.505808,9.4999995 C 2.505808,15.014454 2.532086,19.239576 2.499998,24.25043 C 3.9354686,24.25043 45.499996,20.550698 45.499996,18.958166 L 45.499996,12.506647 C 45.499996,11.848794 44.945792,11.498976 44.255517,11.506647 L 23.999998,11.506647 C 21.952515,11.506647 20.501107,8.4999995 18.999998,8.4999995 L 3.5062477,8.4999995 L 3.5062498,8.4999995 z"
       id="path3468"
       style="fill:url(#linearGradient2808);fill-opacity:1;stroke:url(#radialGradient2810);stroke-width:1.00000012;stroke-linecap:round;stroke-linejoin:round;stroke-miterlimit:4;stroke-dasharray:none;stroke-opacity:1;display:inline" />
    <g
       transform="matrix(0.9583333,0,0,0.6666667,1.0000008,15)"
       id="g7591"
       style="opacity:0.4">
      <rect
         width="40"
         height="9"
         x="4"
         y="39"
         id="rect4173"
         style="fill:url(#linearGradient7596-975);fill-opacity:1;fill-rule:nonzero;stroke:none;stroke-width:1;marker:none;visibility:visible;display:inline;overflow:visible" />
      <path
         d="M 44,39.00031 C 44,39.00031 44,47.999814 44,47.999814 C 45.654593,48.016754 48.000001,45.983481 48,43.499483 C 48,41.015484 46.153598,39.00031 44,39.00031 z"
         id="path5058"
         style="fill:url(#radialGradient7598-526);fill-opacity:1;fill-rule:nonzero;stroke:none;stroke-width:1;marker:none;visibility:visible;display:inline;overflow:visible" />
      <path
         d="M 4,39.00031 C 4,39.00031 4,47.999814 4,47.999814 C 2.3454068,48.016755 0,45.983481 0,43.499483 C 0,41.015484 1.8464008,39.00031 4,39.00031 z"
         id="path5018"
         style="fill:url(#radialGradient7600-312);fill-opacity:1;fill-rule:nonzero;stroke:none;stroke-width:1;marker:none;visibility:visible;display:inline;overflow:visible" />
    </g>
    <path
       d="M 2.1628556,16.525193 C 1.0901486,16.648887 1.6630856,17.927311 1.5775586,18.646205 C 1.9700906,27.116295 2.3664906,35.41566 2.7566056,43.885807 C 3.0984416,44.8515 4.3510406,44.356967 5.1447226,44.479557 C 18.338267,44.479557 31.531812,44.479557 44.725358,44.479557 C 45.814738,44.372906 45.361818,43.071876 45.515058,42.327295 C 45.907598,33.857205 46.303998,25.55784 46.694108,17.087693 C 46.442938,16.133404 45.174598,16.663679 44.430985,16.525193 C 30.341611,16.525193 16.252234,16.525193 2.1628556,16.525193 L 2.1628556,16.525193 z"
       id="path3388"
       style="fill:url(#radialGradient2799);fill-opacity:1;stroke:url(#linearGradient2801);stroke-width:1;stroke-linecap:round;stroke-linejoin:round;stroke-miterlimit:4;stroke-dashoffset:0;stroke-opacity:1" />
    <path
       d="M 2.0582428,16.065146 L 45.954718,16.065549 C 46.588878,16.065549 46.999873,16.51016 46.999873,17.062916 L 45.755637,44.002247 C 45.755637,44.555002 45.245105,45 44.610947,45 L 3.4020122,45 C 2.7678523,45 2.2573195,44.555002 2.2573195,44.002247 L 1.0130886,17.0629 C 1.0130886,16.510143 1.4240829,16.065146 2.0582428,16.065146 L 2.0582428,16.065146 z"
       id="path6127"
       style="opacity:0.4;fill:url(#linearGradient2796);fill-opacity:1;stroke:none" />
    <path
       d="M 46.5,17.5 C 32.96875,17.5 16.03125,17.5 2.5,17.5 C 2.8854167,25.677083 3.2708333,33.854167 3.65625,42.03125"
       id="path2435"
       style="fill:none;stroke:url(#radialGradient2793);stroke-width:0.99999976;stroke-linecap:round;stroke-linejoin:round;stroke-miterlimit:4;stroke-dasharray:none;stroke-opacity:1" />
    <path
       d="M 45.75,16 C 31.20041,16.073348 16.645416,15.978851 2.09375,16 C 0.28698984,16.411117 1.2593433,18.46661 1.1213236,19.771525 C 1.3433531,23.934872 1.4443903,28.116464 1.7417851,32.268407 C 16.742298,29.905609 31.66833,27.661153 46.40625,25.21875 C 47.187241,22.632172 47.193628,19.548156 47.063607,16.789526 C 46.834471,16.284964 46.276599,15.988682 45.75,16 z"
       id="path3455"
       style="fill:url(#linearGradient2790);fill-opacity:1;stroke:none" />
    <rect
       width="13"
       height="2"
       rx="1"
       ry="1"
       x="5"
       y="10"
       id="rect3562"
       style="fill:#eda374;fill-opacity:1;fill-rule:nonzero;stroke:none;stroke-width:1;marker:none;visibility:visible;display:block;overflow:visible;enable-background:accumulate" />
    <path
       d="M 29.611278,21.024491 C 28.76055,21.168116 28.14171,21.910276 28.153763,22.77245 C 28.153763,23.737821 28.936825,24.520409 29.90278,24.520409 C 30.868737,24.520409 31.651798,23.737821 31.651798,22.77245 C 31.659069,22.253671 31.435361,21.758474 31.041198,21.420824 C 30.647034,21.083174 30.123153,20.937969 29.611278,21.024491 L 29.611278,21.024491 z M 24.109159,22.990945 C 23.35443,22.993182 22.606164,23.164476 21.740696,23.573598 L 23.234649,26.559695 C 26.08282,25.755771 28.569344,27.582405 29.538402,30.529018 L 33.000001,30.529018 C 32.667334,28.80761 31.955104,27.053438 30.740852,25.758547 C 29.893266,26.191089 28.852691,26.225452 27.971574,25.722131 C 27.091361,25.219047 26.595947,24.29652 26.550497,23.355104 C 25.615752,23.138758 24.863886,22.988707 24.109159,22.990945 z M 19.991678,24.301914 C 18.516619,25.324319 17.068056,27.290947 16.675831,29.145218 C 17.764167,29.710667 18.312346,30.585373 18.351973,32.058484 C 18.389183,33.441716 17.548261,34.340653 16.785145,34.898916 C 17.461048,36.207891 18.932527,38.086229 20.210305,38.686162 L 21.631382,35.263074 C 19.63562,33.730958 18.903956,30.395862 21.631382,27.652169 L 19.991678,24.301914 z M 14.63531,30.310525 C 13.844476,30.362076 13.187161,30.938617 13.033379,31.715597 C 12.879597,32.492579 13.267787,33.275797 13.979429,33.624363 C 14.844764,34.056769 15.897004,33.706233 16.329671,32.841422 C 16.762339,31.97661 16.411593,30.925008 15.546257,30.492603 C 15.264582,30.350953 14.94983,30.28804 14.63531,30.310525 z M 29.538402,32.531888 C 28.745965,35.412651 26.533028,37.220695 23.416838,36.355548 L 22.032199,39.596556 C 23.690565,40.137826 24.64627,40.197934 26.47762,39.705804 C 26.530414,38.762256 27.048856,37.88636 27.935135,37.375192 C 28.821607,36.863915 29.860348,36.839663 30.704414,37.265945 C 31.787421,35.873864 32.724425,34.307779 33.000001,32.531888 L 29.538402,32.531888 z M 29.793467,38.504082 C 28.870445,38.561846 28.151955,39.327772 28.153763,40.252041 C 28.153763,41.217412 28.936825,42 29.90278,42 C 30.868737,42 31.651798,41.217412 31.651798,40.252041 C 31.652744,39.768889 31.453544,39.306896 31.101499,38.975759 C 30.749455,38.644624 30.275968,38.473884 29.793467,38.504082 z"
       id="path2812"
       style="opacity:0.4;fill:#ffffff;fill-opacity:1;fill-rule:evenodd;stroke:none;stroke-width:0.53330868px;stroke-linecap:butt;stroke-linejoin:miter;marker:none;marker-start:none;marker-mid:none;marker-end:none;stroke-miterlimit:4;stroke-dasharray:none;stroke-dashoffset:0;stroke-opacity:1;visibility:visible;display:inline;overflow:visible;enable-background:accumulate" />
    <path
       d="M 29.611278,20.024491 C 28.76055,20.168116 28.14171,20.910276 28.153763,21.77245 C 28.153763,22.737821 28.936825,23.520409 29.90278,23.520409 C 30.868737,23.520409 31.651798,22.737821 31.651798,21.77245 C 31.659069,21.253671 31.435361,20.758474 31.041198,20.420824 C 30.647034,20.083174 30.123153,19.937969 29.611278,20.024491 L 29.611278,20.024491 z M 24.109159,21.990945 C 23.35443,21.993182 22.606164,22.164476 21.740696,22.573598 L 23.234649,25.559695 C 26.08282,24.755771 28.569344,26.582405 29.538402,29.529018 L 33.000001,29.529018 C 32.667334,27.80761 31.955104,26.053438 30.740852,24.758547 C 29.893266,25.191089 28.852691,25.225452 27.971574,24.722131 C 27.091361,24.219047 26.595947,23.29652 26.550497,22.355104 C 25.615752,22.138758 24.863886,21.988707 24.109159,21.990945 z M 19.991678,23.301914 C 18.516619,24.324319 17.068056,26.290947 16.675831,28.145218 C 17.764167,28.710667 18.312346,29.585373 18.351973,31.058484 C 18.389183,32.441716 17.548261,33.340653 16.785145,33.898916 C 17.461048,35.207891 18.932527,37.086229 20.210305,37.686162 L 21.631382,34.263074 C 19.63562,32.730958 18.903956,29.395862 21.631382,26.652169 L 19.991678,23.301914 z M 14.63531,29.310525 C 13.844476,29.362076 13.187161,29.938617 13.033379,30.715597 C 12.879597,31.492579 13.267787,32.275797 13.979429,32.624363 C 14.844764,33.056769 15.897004,32.706233 16.329671,31.841422 C 16.762339,30.97661 16.411593,29.925008 15.546257,29.492603 C 15.264582,29.350953 14.94983,29.28804 14.63531,29.310525 z M 29.538402,31.531888 C 28.745965,34.412651 26.533028,36.220695 23.416838,35.355548 L 22.032199,38.596556 C 23.690565,39.137826 24.64627,39.197934 26.47762,38.705804 C 26.530414,37.762256 27.048856,36.88636 27.935135,36.375192 C 28.821607,35.863915 29.860348,35.839663 30.704414,36.265945 C 31.787421,34.873864 32.724425,33.307779 33.000001,31.531888 L 29.538402,31.531888 z M 29.793467,37.504082 C 28.870445,37.561846 28.151955,38.327772 28.153763,39.252041 C 28.153763,40.217412 28.936825,41 29.90278,41 C 30.868737,41 31.651798,40.217412 31.651798,39.252041 C 31.652744,38.768889 31.453544,38.306896 31.101499,37.975759 C 30.749455,37.644624 30.275968,37.473884 29.793467,37.504082 z"
       id="path19"
       style="opacity:1;fill:url(#linearGradient3588);fill-opacity:1;fill-rule:evenodd;stroke:none;stroke-width:0.53330868px;stroke-linecap:butt;stroke-linejoin:miter;marker:none;marker-start:none;marker-mid:none;marker-end:none;stroke-miterlimit:4;stroke-dasharray:none;stroke-dashoffset:0;stroke-opacity:1;visibility:visible;display:inline;overflow:visible;enable-background:accumulate" />
  </g>
</svg>

<?xml version="1.0" encoding="UTF-8" standalone="no"?>
<!-- Created with Inkscape (http://www.inkscape.org/) -->
<svg id="svg3602" xmlns="http://www.w3.org/2000/svg" height="48" width="48" version="1.0" xmlns:xlink="http://www.w3.org/1999/xlink">
 <defs id="defs3604">
  <radialGradient id="radialGradient2810" gradientUnits="userSpaceOnUse" cy="5.0172" cx="3" gradientTransform="matrix(-1.2749e-8 1.7143 -2.1593 -1.46e-8 12.809 2.857)" r="21">
   <stop id="stop3486" style="stop-color:#bdbdbd" offset="0"/>
   <stop id="stop3488" style="stop-color:#d0d0d0" offset="1"/>
  </radialGradient>
  <linearGradient id="linearGradient2808" y2="16.19" gradientUnits="userSpaceOnUse" x2="62.989" gradientTransform="translate(-50.941)" y1="13.183" x1="62.989">
   <stop id="stop6406" style="stop-color:#f9f9f9" offset="0"/>
   <stop id="stop6408" style="stop-color:#c9c9c9" offset="1"/>
  </linearGradient>
  <radialGradient id="radialGradient7600-312" gradientUnits="userSpaceOnUse" cy="486.65" cx="605.71" gradientTransform="matrix(-.032130 0 0 .037059 23.363 25.412)" r="117.14">
   <stop id="stop2681" offset="0"/>
   <stop id="stop2683" style="stop-opacity:0" offset="1"/>
  </radialGradient>
  <radialGradient id="radialGradient7598-526" gradientUnits="userSpaceOnUse" cy="486.65" cx="605.71" gradientTransform="matrix(.032130 0 0 .037059 24.637 25.412)" r="117.14">
   <stop id="stop2675" offset="0"/>
   <stop id="stop2677" style="stop-opacity:0" offset="1"/>
  </radialGradient>
  <linearGradient id="linearGradient7596-975" y2="609.51" gradientUnits="userSpaceOnUse" x2="302.86" gradientTransform="matrix(.082840 0 0 .037059 -5.9408 25.412)" y1="366.65" x1="302.86">
   <stop id="stop2667" style="stop-opacity:0" offset="0"/>
   <stop id="stop2669" offset=".5"/>
   <stop id="stop2671" style="stop-opacity:0" offset="1"/>
  </linearGradient>
  <linearGradient id="linearGradient2801" y2="15.944" xlink:href="#linearGradient3390-178-986-453" gradientUnits="userSpaceOnUse" x2="65.34" gradientTransform="translate(-53.765 -.11419)" y1="45.114" x1="82.453"/>
  <radialGradient id="radialGradient2799" gradientUnits="userSpaceOnUse" cy="14.113" cx="63.969" gradientTransform="matrix(1.5647 -9.5143e-8 6.1772e-8 1.0159 -86.213 8.1461)" r="23.097">
   <stop id="stop3618" style="stop-color:#f0c178" offset="0"/>
   <stop id="stop3270" style="stop-color:#e18941" offset=".5"/>
   <stop id="stop3620" style="stop-color:#ec4f18" offset="1"/>
  </radialGradient>
  <linearGradient id="linearGradient2796" y2="36.658" gradientUnits="userSpaceOnUse" x2="22.809" gradientTransform="matrix(1.1447 0 0 .99775 -3.4661 1.0988)" y1="49.629" x1="22.935">
   <stop id="stop2661" style="stop-color:#0a0a0a;stop-opacity:.498" offset="0"/>
   <stop id="stop2663" style="stop-color:#0a0a0a;stop-opacity:0" offset="1"/>
  </linearGradient>
  <radialGradient id="radialGradient2793" gradientUnits="userSpaceOnUse" cy="8.3021" cx="7.2647" gradientTransform="matrix(0 1.208 -1.6272 0 26.372 8.2665)" r="20.98">
   <stop id="stop2693" style="stop-color:#fff;stop-opacity:0.4" offset="0"/>
   <stop id="stop2695" style="stop-color:#fff;stop-opacity:0" offset="1"/>
  </radialGradient>
  <linearGradient id="linearGradient2790" y2="33.955" gradientUnits="userSpaceOnUse" x2="15.215" y1="22.292" x1="11.566">
   <stop id="stop2687" style="stop-color:#fff;stop-opacity:.27451" offset="0"/>
   <stop id="stop2689" style="stop-color:#fff;stop-opacity:.078431" offset="1"/>
  </linearGradient>
  <linearGradient id="linearGradient3390-178-986-453">
   <stop id="stop3624" style="stop-color:#bb2b12" offset="0"/>
   <stop id="stop3626" style="stop-color:#cd7233" offset="1"/>
  </linearGradient>
  <linearGradient id="linearGradient3588" y2="23.614" xlink:href="#linearGradient3390-178-986-453" gradientUnits="userSpaceOnUse" x2="14.265" y1="44.916" x1="23.964"/>
 </defs>
 <g id="layer1">
  <path id="path3468" style="stroke-linejoin:round;stroke:url(#radialGradient2810);stroke-linecap:round;fill:url(#linearGradient2808)" d="m3.5062 8.5c-0.6902 0.0077-1.0004 0.3421-1.0004 1 0 5.514 0.0263 9.74-0.0058 14.75 1.4355 0 43-3.699 43-5.292v-6.451c0-0.658-0.554-1.008-1.244-1h-20.256c-2.047 0-3.499-3.007-5-3.007h-15.494 0.0002z"/>
  <g id="g7591" style="opacity:.4" transform="matrix(.95833 0 0 .66667 1 15)">
   <rect id="rect4173" style="fill:url(#linearGradient7596-975)" height="9" width="40" y="39" x="4"/>
   <path id="path5058" style="fill:url(#radialGradient7598-526)" d="m44 39v9c1.655 0.017 4-2.017 4-4.501s-1.846-4.499-4-4.499z"/>
   <path id="path5018" style="fill:url(#radialGradient7600-312)" d="m4 39v9c-1.6546 0.017-4-2.017-4-4.501s1.8464-4.499 4-4.499z"/>
  </g>
  <path id="path3388" style="stroke-linejoin:round;stroke:url(#linearGradient2801);stroke-linecap:round;fill:url(#radialGradient2799)" d="m2.1629 16.525c-1.0728 0.124-0.4998 1.402-0.5853 2.121 0.3925 8.47 0.7889 16.77 1.179 25.24 0.3418 0.966 1.5944 0.471 2.3881 0.594h39.58c1.09-0.107 0.637-1.408 0.79-2.153 0.393-8.47 0.789-16.769 1.179-25.239-0.251-0.955-1.519-0.424-2.263-0.563h-42.268-0.0001z"/>
  <path id="path6127" style="opacity:.4;fill:url(#linearGradient2796)" d="m2.0582 16.065l43.897 0.001c0.634 0 1.045 0.444 1.045 0.997l-1.244 26.939c0 0.553-0.511 0.998-1.145 0.998h-41.209c-0.6341 0-1.1447-0.445-1.1447-0.998l-1.2442-26.939c0-0.553 0.411-0.998 1.0451-0.998z"/>
  <path id="path2435" style="stroke-linejoin:round;stroke:url(#radialGradient2793);stroke-linecap:round;fill:none" d="m46.5 17.5h-44l1.1562 24.531"/>
  <path id="path3455" style="fill:url(#linearGradient2790)" d="m45.75 16c-14.55 0.073-29.105-0.021-43.656 0-1.807 0.411-0.8347 2.467-0.9727 3.772 0.2221 4.163 0.3231 8.344 0.6205 12.496 15-2.362 29.926-4.607 44.664-7.049 0.781-2.587 0.788-5.671 0.658-8.429-0.23-0.505-0.787-0.801-1.314-0.79z"/>
  <rect id="rect3562" style="display:block;fill:#eda374" rx="1" ry="1" height="2" width="13" y="10" x="5"/>
  <path id="path2812" style="opacity:.4;fill-rule:evenodd;fill:#fff" d="m29.611 21.024c-0.85 0.144-1.469 0.886-1.457 1.748 0 0.966 0.783 1.748 1.749 1.748s1.749-0.782 1.749-1.748c0.007-0.518-0.217-1.014-0.611-1.351-0.394-0.338-0.918-0.483-1.43-0.397zm-5.502 1.967c-0.755 0.002-1.503 0.173-2.368 0.583l1.494 2.986c2.848-0.804 5.334 1.022 6.303 3.969h3.462c-0.333-1.721-1.045-3.476-2.259-4.77-0.848 0.432-1.888 0.466-2.769-0.037s-1.376-1.425-1.422-2.367c-0.934-0.216-1.686-0.366-2.441-0.364zm-4.117 1.311c-1.475 1.022-2.924 2.989-3.316 4.843 1.088 0.566 1.636 1.44 1.676 2.913 0.037 1.384-0.804 2.283-1.567 2.841 0.676 1.309 2.148 3.187 3.425 3.787l1.421-3.423c-1.995-1.532-2.727-4.867 0-7.611l-1.639-3.35zm-5.357 6.009c-0.791 0.051-1.448 0.628-1.602 1.405-0.153 0.777 0.235 1.56 0.946 1.908 0.866 0.433 1.918 0.082 2.351-0.783 0.432-0.864 0.082-1.916-0.784-2.348-0.281-0.142-0.596-0.205-0.911-0.182zm14.903 2.221c-0.792 2.881-3.005 4.689-6.121 3.824l-1.385 3.241c1.659 0.541 2.614 0.601 4.446 0.109 0.052-0.944 0.571-1.82 1.457-2.331 0.887-0.511 1.925-0.535 2.769-0.109 1.083-1.392 2.02-2.958 2.296-4.734h-3.462zm0.255 5.972c-0.923 0.058-1.641 0.824-1.639 1.748 0 0.965 0.783 1.748 1.749 1.748s1.749-0.783 1.749-1.748c0.001-0.483-0.198-0.945-0.551-1.276-0.352-0.331-0.825-0.502-1.308-0.472z"/>
  <path id="path19" style="fill-rule:evenodd;fill:url(#linearGradient3588)" d="m29.611 20.024c-0.85 0.144-1.469 0.886-1.457 1.748 0 0.966 0.783 1.748 1.749 1.748s1.749-0.782 1.749-1.748c0.007-0.518-0.217-1.014-0.611-1.351-0.394-0.338-0.918-0.483-1.43-0.397zm-5.502 1.967c-0.755 0.002-1.503 0.173-2.368 0.583l1.494 2.986c2.848-0.804 5.334 1.022 6.303 3.969h3.462c-0.333-1.721-1.045-3.476-2.259-4.77-0.848 0.432-1.888 0.466-2.769-0.037s-1.376-1.425-1.422-2.367c-0.934-0.216-1.686-0.366-2.441-0.364zm-4.117 1.311c-1.475 1.022-2.924 2.989-3.316 4.843 1.088 0.566 1.636 1.44 1.676 2.913 0.037 1.384-0.804 2.283-1.567 2.841 0.676 1.309 2.148 3.187 3.425 3.787l1.421-3.423c-1.995-1.532-2.727-4.867 0-7.611l-1.639-3.35zm-5.357 6.009c-0.791 0.051-1.448 0.628-1.602 1.405-0.153 0.777 0.235 1.56 0.946 1.908 0.866 0.433 1.918 0.082 2.351-0.783 0.432-0.864 0.082-1.916-0.784-2.348-0.281-0.142-0.596-0.205-0.911-0.182zm14.903 2.221c-0.792 2.881-3.005 4.689-6.121 3.824l-1.385 3.241c1.659 0.541 2.614 0.601 4.446 0.109 0.052-0.944 0.571-1.82 1.457-2.331 0.887-0.511 1.925-0.535 2.769-0.109 1.083-1.392 2.02-2.958 2.296-4.734h-3.462zm0.255 5.972c-0.923 0.058-1.641 0.824-1.639 1.748 0 0.965 0.783 1.748 1.749 1.748s1.749-0.783 1.749-1.748c0.001-0.483-0.198-0.945-0.551-1.276-0.352-0.331-0.825-0.502-1.308-0.472z"/>
 </g>
</svg>
